X: 43048
T: Wind Off The Lake, The
R: jig
M: 6/8
K: Gmajor
G2B {c}BAB|G2B {c}BAG|F2A AFD|F~A2 AFD|
G2B {c}BAB|G2B {c}BAB|def gdB|1 GAG G3:|2 GAG G2a||
aba {b}agf|gag {a}gfe|dBd gdB|ABA A2a|
aba {b}agf|gag gfe|dBd gdB|1 GAG G2a:|2 GAG G3||

